!!!COM:	Hindemith
!!!OTL:	631_Hin-20/40/296-303
**kern	**dynam	**kern	**dynam	**kern	**dynam	**kern	**dynam	**kern	**dynam
*part5	*part5	*part4	*part4	*part3	*part3	*part2	*part2	*part1	*part1
*staff5	*	*staff4	*	*staff3	*	*staff2	*	*staff1	*
*I"Violoncello	*	*I"Viola	*	*I"Violin II	*	*I"Violin I	*	*I"Clarinet in Bb	*
*I'Vc.	*	*I'Vla.	*	*I'Vln. II	*	*I'Vln. I	*	*I'Cl.	*
*clefF4	*	*clefC3	*	*clefG2	*	*clefG2	*	*clefG2	*
*k[]	*	*k[]	*	*k[]	*	*k[]	*	*k[]	*
*	*	*	*	*	*	*	*	*	*
*M3/4	*	*M3/4	*	*M3/4	*	*M3/4	*	*M3/4	*
=1	=	=	=	=	=	=	=	=	=
8FF#XL	f	8F#XL	f	4f#X	.	4ff#X	.	4cc#X	.
8CC#XJ 8GG#X	.	8GnJ 8B-X	.	.	.	.	.	.	.
8CC#L 8GG#	.	8GL 8B-	.	4r	.	4f#X 4cc#X 4aa	f	4r	.
8CC#J 8GG#	.	8GJ 8B-	.	.	.	.	.	.	.
8CC#L 8GG#	.	8GL 8B-	.	4e-X 4b-X 4gg-X	f	4r	.	(8ff#XL	f
8CC#J 8GG#	.	8GJ 8B-	.	.	.	.	.	8ggJ	.
=2	=2	=2	=2	=2	=2	=2	=2	=2	=2
(8BBB#XL 8FF##X	.	(8DL 8A	.	4r	.	4f#X 4dd#X 4bb	.	2aa)	.
8CC#XJ) 8GG#X	.	8GJ) 8B-X	.	.	.	.	.	.	.
8CC#L 8GG#	.	8GL 8B-	.	8d-XL 8b-X 8gg-X	.	4r	.	.	.
8CC#J 8GG#	.	8GJ 8B-	.	8d-J 8b- 8gg-	.	.	.	.	.
8CC#L 8GG#	.	8GL 8B-	.	4r	.	4fn 4ccn 4aa-X	.	(8bbL	.
8CC#J 8GG#	.	8GJ 8B-	.	.	.	.	.	8ggJ	.
=3	=3	=3	=3	=3	=3	=3	=3	=3	=3
4DD 4AA	.	4F 4d-X	.	4f 4dd-X	.	4r	.	2aa)	.
8CC#XL 8GG#X	.	8GL 8B-X	.	4r	.	4g#X 4cc#X 4ee	.	.	.
8CC#J 8GG#	.	8GJ 8B-	.	.	.	.	.	.	.
8CC#L 8GG#	.	8GL 8B-	.	4f#X 4cc#X 4aan	.	4r	.	(8ff#XL	.
8CC#J 8GG#	.	8GJ 8B-	.	.	.	.	.	8aaJ	.
=4	=4	=4	=4	=4	=4	=4	=4	=4	=4
(8CC#XL 8GG#X	.	(8GL 8B-X	.	4r	.	4e-X 4b-X 4gg-X	.	8dddL	.
8BBB#XJ) 8FF##X	.	8DJ) 8A	.	.	.	.	.	8aaJ	.
8CC#L 8GG#	.	8GL 8B-	.	4f#X 4dd#X 4bb	.	4r	.	8ff#XL	.
8CC#J 8GG#	.	8GJ 8B-	.	.	.	.	.	8aaJ	.
8CC#L 8GG#	.	8GL 8B-	.	4r	.	8d-XL 8b- 8gg-	.	8ggL	.
8CC#J 8GG#	.	8GJ 8B-	.	.	.	8d-J 8b- 8gg-	.	8eeJ	.
=5	=5	=5	=5	=5	=5	=5	=5	=5	=5
!!linebreak:original
4CC#X 4GG#X	.	4G 4B-X	.	4fn 4ccn 4aa-X	.	4r	.	4dd)	.
8CC#L 8GG#	.	8GL 8B-	.	4r	.	4f 4dd-X	.	(8ff#XL	.
8CC#J 8GG#	.	8GJ 8B-	.	.	.	.	.	8ggJ	.
8CC#L 8GG#	.	8GL 8B-	.	4g#X 4cc#X 4ee	.	4r	.	[4aa)	.
8CC#J 8GG#	.	8GJ 8B-	.	.	.	.	.	.	.
=6	=6	=6	=6	=6	=6	=6	=6	=6	=6
(8BBB#XL 8FF##X	.	(8DL 8A	.	4r	.	4f#X 4cc#X 4aan	.	4aa]	.
8CC#XJ) 8GG#X	.	8GJ) 8B-X	.	.	.	.	.	.	.
8CC#L 8GG#	.	8GL 8B-	.	4e-X 4b-X 4gg-X	.	4r	.	(8bbL	.
8CC#J 8GG#	.	8GJ 8B-	.	.	.	.	.	8ggJ	.
8CC#L 8GG#	.	8GL 8B-	.	4r	.	4f# 4dd#X 4bb	.	[4aa)	.
8CC#J 8GG#	.	8GJ 8B-	.	.	.	.	.	.	.
=7	=7	=7	=7	=7	=7	=7	=7	=7	=7
4DD 4AA	.	4F 4d-X	.	8d-XL 8b-X 8gg-X	.	4r	.	4aa]	.
.	.	.	.	8d-J 8b- 8gg-	.	.	.	.	.
8CC#XL 8GG#X	.	8GL 8B-X	.	4r	.	4fn 4ccn 4aa-X	.	(8ff#XL	.
8CC#J 8GG#	.	8GJ 8B-	.	.	.	.	.	8aaJ	.
8CC#L 8GG#	.	8GL 8B-	.	4f 4dd-X	.	4r	.	8dddL	.
8CC#J 8GG#	.	8GJ 8B-	.	.	.	.	.	8aaJ	.
=8	=8	=8	=8	=8	=8	=8	=8	=8	=8
(8CC#XL 8GG#X	.	(8GL 8B-X	.	4r	.	4g#X 4cc#X 4ee	.	8bbL	.
8BBB#XJ) 8FF##X	.	8DJ) 8A	.	.	.	.	.	8ggJ	.
8CC#L 8GG#	.	8GL 8B-	.	4f#X 4cc#X 4aan	.	4r	.	8ff#XL	.
8CC#J 8GG#	.	8GJ 8B-	.	.	.	.	.	8ggJ	.
8CC#L 8GG#	.	8GL 8B-	.	4r	.	4e-X 4b-X 4gg-X	.	4aa)	.
8CC#J 8GG#	.	8GJ 8B-	.	.	.	.	.	.	.
==	==	==	==	==	==	==	==	==	==
*-	*-	*-	*-	*-	*-	*-	*-	*-	*-
!!!system-decoration: s1[(s2,s3,s4,s5)]
!!!ONB: Converted from MusicXML on 2020/01/17
